X:1
T:[ID 2-44a]
T:[ID 2-44a]
T:Bezeichnung standardisiert: Menuett Menuet 3. In dieser Quelle auch als: Menuetto
T:Urheber unbekannt Datum in der hier transkribierten schriftlichen Quelle: 1767
C:Urheber unbekannt
C:Datum in der hier transkribierten schriftlichen Quelle: 1767
L:1/8
M:3/4
K:D
V:1 bass 
V:1
 D,2 D,,2 z2 | F,2 D,2 E,2 | F,2 D,2 G,2 | F,2 E,2 D,2 | E,2 E,,2 C,2 | D,2 E,2 F,2 | C,2 E,2 D,2 | %7
 A,2 E,2 A,,2 :: A,2 A,,2 z2 | A,2 A,,2 G,2 | F,2 E,2 D,2 | A,2 A,,2 F,2 | G,2 ^G,2 E,2 | %13
 A,2 C2 A,2 | D,2 A,2 A,,2 | D,2 A,,2 D,,2 :| %16

